X:1
T: Brudenell Jig
T: 8x 32J3C
P: Auld Jock the Tinker
C: by Ian Thow
C: arr. T. Traub 8-3-2003
R: Jig
M: 6/8
K: A
L: 1/8
|: E|"A"AGA ecA|"D"FDA "A"E2 E|"A"AGA ecA|"E"GBB B2 E|"A"AGA CEA|"D"FDA "E"E2 D|"A"CEA "E"BAG|"A"A3-A2 :|
|: c/d/|"A"ecf ecA|"A"ecA E3|"E7"d3 GBd|"E"fed "A"c3|"A"e3 cea|"D"fdA F3|"E"EGe dcB|"A"A3-A2:|
